svg/Filled/flash-off_filled.svg

<svg viewBox="0 0 24 24" xmlns="http://www.w3.org/2000/svg" width="24" height="24"><path d="M1.26 1.26a.9.9 0 0 1 1.28 0l20.2 20.2.06.06a.9.9 0 0 1-1.27 1.27l-.07-.06-20.2-20.2a.9.9 0 0 1 0-1.27m12.87 16.05-4 4.96h-.01a1 1 0 0 1-.78.37 1 1 0 0 1-.99-1.17v-.01l1.16-6.35a.1.1 0 0 0-.1-.12H5.04a.9.9 0 0 1-.7-1.47l2.68-3.31zm.64-15.95.2.05.1.04.1.04.17.13.08.08.06.08.1.19.04.1.03.1.02.21v.1l-.02.06-1.16 6.35a.1.1 0 0 0 .1.12h4.37a.9.9 0 0 1 .7 1.47l-2.68 3.31-7.11-7.1 4-4.95a1 1 0 0 1 .34-.27l.1-.05a1 1 0 0 1 .35-.06z"/></svg>

<svg viewBox="0 0 24 24" xmlns="http://www.w3.org/2000/svg" width="24" height="24"><path d="M1.26 1.26A.9 .9 0 0 1 2.54 1.26L22.8 21.52A.9 .9 0 0 1 21.53 22.79L1.26 2.53A.9 .9 0 0 1 1.26 1.26M14.13 17.31L10.12 22.27A1 1 0 0 1 9.34 22.64A1 1 0 0 1 8.35 21.47L9.51 15.11A.1 .1 0 0 0 9.41 14.99L5.04 14.99A.9 .9 0 0 1 4.34 13.52L7.02 10.21ZM14.77 1.36L15.17 1.49L15.48 1.78L15.65 2.17L15.65 2.54L14.49 8.89A.1 .1 0 0 0 14.59 9.01L18.96 9.01A.9 .9 0 0 1 19.66 10.48L16.98 13.79L9.87 6.69L13.87 1.74A1 1 0 0 1 14.21 1.47L14.31 1.42A1 1 0 0 1 14.66 1.36Z"/></svg>
